Catalina-dark/places/16/drive-harddisk-usb-symbolic.svg

<?xml version="1.0" encoding="UTF-8" standalone="no"?>
<!-- Created with Inkscape (http://www.inkscape.org/) -->

<svg
   xmlns:dc="http://purl.org/dc/elements/1.1/"
   xmlns:cc="http://creativecommons.org/ns#"
   xmlns:rdf="http://www.w3.org/1999/02/22-rdf-syntax-ns#"
   xmlns:svg="http://www.w3.org/2000/svg"
   xmlns="http://www.w3.org/2000/svg"
   xmlns:sodipodi="http://sodipodi.sourceforge.net/DTD/sodipodi-0.dtd"
   xmlns:inkscape="http://www.inkscape.org/namespaces/inkscape"
   id="svg7384"
   sodipodi:docname="drive-harddisk-usb-symbolic.svg"
   version="1.1"
   inkscape:version="0.92.4 5da689c313, 2019-01-14"
   height="36"
   width="36">
  <metadata
     id="metadata90">
    <rdf:RDF>
      <cc:Work
         rdf:about="">
        <dc:format>image/svg+xml</dc:format>
        <dc:type
           rdf:resource="http://purl.org/dc/dcmitype/StillImage" />
        <dc:title>Gnome Symbolic Icon Theme</dc:title>
      </cc:Work>
    </rdf:RDF>
  </metadata>
  <sodipodi:namedview
     inkscape:cy="54.434569"
     pagecolor="#ffffff"
     borderopacity="1"
     showborder="true"
     inkscape:bbox-paths="false"
     guidetolerance="10"
     inkscape:window-width="1033"
     showguides="true"
     inkscape:object-nodes="true"
     inkscape:snap-bbox="true"
     inkscape:pageshadow="2"
     inkscape:guide-bbox="true"
     inkscape:snap-nodes="true"
     bordercolor="#666666"
     objecttolerance="10"
     id="namedview88"
     showgrid="false"
     inkscape:window-maximized="0"
     inkscape:window-x="333"
     inkscape:snap-global="true"
     inkscape:window-y="42"
     gridtolerance="10"
     inkscape:window-height="641"
     inkscape:snap-to-guides="true"
     inkscape:current-layer="layer13"
     inkscape:zoom="2.8284271"
     inkscape:cx="-60.83379"
     inkscape:snap-grids="true"
     inkscape:pageopacity="1">
    <inkscape:grid
       spacingx="1"
       spacingy="1"
       id="grid4866"
       empspacing="2"
       enabled="true"
       type="xygrid"
       snapvisiblegridlinesonly="true"
       visible="true"
       originx="0"
       originy="0" />
  </sodipodi:namedview>
  <title
     id="title9167">Gnome Symbolic Icon Theme</title>
  <defs
     id="defs7386" />
  <g
     inkscape:label="status"
     transform="translate(-442,-156)"
     inkscape:groupmode="layer"
     id="layer9"
     style="display:inline" />
  <g
     inkscape:label="devices"
     transform="translate(-442,-156)"
     inkscape:groupmode="layer"
     id="layer10" />
  <g
     inkscape:label="apps"
     transform="translate(-442,-156)"
     inkscape:groupmode="layer"
     id="layer11" />
  <g
     inkscape:label="actions"
     transform="translate(-442,-156)"
     inkscape:groupmode="layer"
     id="layer12" />
  <g
     inkscape:label="places"
     transform="translate(-442,-156)"
     inkscape:groupmode="layer"
     id="layer13">
    <path
       inkscape:connector-curvature="0"
       style="opacity:0.05;fill:#000000;fill-opacity:0.90196078"
       d="m 445.98242,183.42187 0,4.5918 c 0,1.10029 0.88604,1.98633 1.98633,1.98633 l 24.02734,0 c 1.10029,0 1.98633,-0.88604 1.98633,-1.98633 l 0,-4.57226 C 473.35592,183.78775 472.64243,184 471.89648,184 l -23.79296,0 c -0.75993,0 -1.48656,-0.21966 -2.1211,-0.57813 z"
       id="rect4169" />
    <path
       style="opacity:0.3;fill:#e8f1f5;fill-opacity:0.60456276"
       d="M 7.9863281 2 C 6.8860381 2 6.10933 2.8914781 6 3.9863281 L 4 24.013672 C 3.89067 25.108522 4.8860381 26 5.9863281 26 L 11.257812 26 L 28 26 L 30 26 L 30.013672 26 C 31.113962 26 32.10933 25.108522 32 24.013672 L 30 3.9863281 C 29.89064 2.8914781 29.113972 2 28.013672 2 L 28 2 L 26 2 L 13.257812 2 L 7.9863281 2 z "
       transform="translate(442,156)"
       id="path4250" />
    <path
       inkscape:connector-curvature="0"
       style="opacity:0.816;fill:#e8f1f5;fill-opacity:0.82509506"
       d="m 450.10352,156 c -2.27338,0 -3.87497,1.84165 -4.10352,4.10352 l -2,19.79296 c -0.006,0.0568 -0.003,0.11172 -0.006,0.16797 -0.002,-0.0564 -0.0117,-0.11098 -0.0117,-0.16797 l 0,8 c 0,2.27338 1.83014,4.10352 4.10352,4.10352 l 23.79297,0 c 2.27338,0 4.10351,-1.83014 4.10351,-4.10352 l 0,-7.17382 c 0.0389,-0.26683 0.0462,-0.54344 0.0176,-0.82618 l -2,-19.79296 C 473.77145,157.84165 472.16986,156 469.89648,156 l -19.79296,0 z m -0.11719,2 5.27148,0 12.74219,0 2,0 0.0137,0 c 1.10029,0 1.877,0.89148 1.98633,1.98633 l 2,20.02734 C 474.10933,181.10852 473.11396,182 472.01367,182 l -0.0137,0 -2,0 -16.74219,0 -5.27148,0 c -1.10029,0 -2.09566,-0.89148 -1.98633,-1.98633 l 2,-20.02734 C 448.10933,158.89148 448.88604,158 449.98633,158 Z m -4.00391,25.42187 c 0.63454,0.35847 1.36117,0.57813 2.1211,0.57813 l 23.79296,0 c 0.74595,0 1.45944,-0.21225 2.08594,-0.55859 l 0,4.57226 c 0,1.10029 -0.88604,1.98633 -1.98633,1.98633 l -0.0137,0 -2,0 -16.74218,0 -5.27149,0 c -1.10029,0 -1.98633,-0.88604 -1.98633,-1.98633 l 0,-4.5918 z"
       id="rect4156" />
    <path
       style="opacity:0.15;fill:#e8f1f5;fill-opacity:0.63498098"
       d="M 6.0683594 30.009766 C 5.3224094 30.009766 4.6089219 30.222019 3.9824219 30.568359 L 3.9824219 32.013672 C 3.9824219 33.113962 4.86846 34 5.96875 34 L 29.996094 34 C 31.096384 34 31.982422 33.113962 31.982422 32.013672 L 31.982422 30.587891 C 31.347882 30.229421 30.621258 30.009766 29.861328 30.009766 L 6.0683594 30.009766 z "
       id="path4172"
       transform="translate(442,156)" />
    <rect
       y="-472"
       x="186"
       height="2"
       width="2"
       id="rect4328"
       style="opacity:0.75;fill:#e8f1f5;fill-opacity:0.90114069;stroke:none"
       transform="matrix(0,1,-1,0,0,0)" />
  </g>
  <g
     inkscape:label="mimetypes"
     transform="translate(-442,-156)"
     inkscape:groupmode="layer"
     id="layer14" />
  <g
     inkscape:label="emblems"
     transform="translate(-442,-156)"
     inkscape:groupmode="layer"
     id="layer15"
     style="display:inline" />
</svg>

<svg width="36" height="36" version="1.1" xmlns="http://www.w3.org/2000/svg">
<g transform="translate(-442,-156)">
<path d="m445.98 183.42v4.5918c0 1.1003 0.88604 1.9863 1.9863 1.9863h24.027c1.1003 0 1.9863-0.88604 1.9863-1.9863v-4.5723c-0.6265 0.34634-1.34 0.55859-2.0859 0.55859h-23.793c-0.75993 0-1.4866-0.21966-2.1211-0.57813z" fill-opacity=".90196" opacity=".05"/>
<path transform="translate(442,156)" d="m7.9863 2c-1.1003 0-1.877 0.89148-1.9863 1.9863l-2 20.027c-0.10933 1.0948 0.88604 1.9863 1.9863 1.9863h5.2715 16.742 2 0.013672c1.1003 0 2.0957-0.89148 1.9863-1.9863l-2-20.027c-0.10936-1.0948-0.88603-1.9863-1.9863-1.9863h-0.013672-2-12.742-5.2715z" fill="#e8f1f5" fill-opacity=".60456" opacity=".3"/>
<path d="m450.1 156c-2.2734 0-3.875 1.8416-4.1035 4.1035l-2 19.793c-6e-3 0.0568-3e-3 0.11172-6e-3 0.16797-2e-3 -0.0564-0.0117-0.11098-0.0117-0.16797v8c0 2.2734 1.8301 4.1035 4.1035 4.1035h23.793c2.2734 0 4.1035-1.8301 4.1035-4.1035v-7.1738c0.0389-0.26683 0.0462-0.54344 0.0176-0.82618l-2-19.793c-0.22845-2.2619-1.83-4.1035-4.1034-4.1035h-19.793zm-0.11719 2h5.2715 12.742 2 0.0137c1.1003 0 1.877 0.89148 1.9863 1.9863l2 20.027c0.1093 1.0948-0.88607 1.9863-1.9864 1.9863h-0.0137-2-16.742-5.2715c-1.1003 0-2.0957-0.89148-1.9863-1.9863l2-20.027c0.10936-1.0948 0.88607-1.9863 1.9864-1.9863zm-4.0039 25.422c0.63454 0.35847 1.3612 0.57813 2.1211 0.57813h23.793c0.74595 0 1.4594-0.21225 2.0859-0.55859v4.5723c0 1.1003-0.88604 1.9863-1.9863 1.9863h-0.0137-2-16.742-5.2715c-1.1003 0-1.9863-0.88604-1.9863-1.9863v-4.5918z" fill="#e8f1f5" fill-opacity=".8251" opacity=".816"/>
<path transform="translate(442,156)" d="m6.0684 30.01c-0.74595 0-1.4594 0.21225-2.0859 0.55859v1.4453c0 1.1003 0.88604 1.9863 1.9863 1.9863h24.027c1.1003 0 1.9863-0.88604 1.9863-1.9863v-1.4258c-0.63454-0.35847-1.3612-0.57812-2.1211-0.57812h-23.793z" fill="#e8f1f5" fill-opacity=".63498" opacity=".15"/>
<rect transform="rotate(90)" x="186" y="-472" width="2" height="2" fill="#e8f1f5" fill-opacity=".90114" opacity=".75"/>
</g>
</svg>
